X: 7
T: The Mason's Apron
R: reel
M: 4/4
L: 1/8
K: Amaj
ed |: "A"cA (3AAA ABAF | "A"EFAB "F#m"dcBA  | "Bm"dB (3BBB BcBA  | "Bm"Bcd(e "E7"gf)ed |
   |"A"cA (3AAA ABAF   | "A"EFAB dcBA       | "Bm"Bcd(e "D"fe)fa | "E7"edcB "A"A2 ed  :|]
   |: "A"cAeA fAe(A    |"A"cA)eA "F#m"fedc  | "Bm"dBfB gBfB      | "Bm"dBfB "E7"gfed   |
   |"A"cAeA fAe(A      | "A"cA)eA "F#m"fedc | "Bm"Bcd(e "D"fe)fa |1 "E7"edcB "A"A2 ed :|2 "E7"edcB "A"A2 |]
